img/delivery.svg

<svg width="43" height="43" viewBox="0 0 43 43" fill="none" xmlns="http://www.w3.org/2000/svg">
<path d="M18.9805 0C16.8965 0 15.2012 1.69531 15.2012 3.7793V5.12305L17.7207 6.38281H18.9805H20.2402L22.7598 5.12305V3.7793C22.7598 1.69531 21.0645 0 18.9805 0Z" fill="#FF6A4D"/>
<path d="M22.7598 5.12305V3.7793C22.7598 1.69531 21.0645 0 18.9805 0V6.38281H20.2402L22.7598 5.12305Z" fill="#E64D2E"/>
<path d="M0 37.9609C0.583775 40.8359 3.25154 43 6.29883 43C9.34612 43 12.0979 40.8359 12.6816 37.9609L9.94476 36.7012H1.74889L0 37.9609Z" fill="#474F54"/>
<path d="M6.29883 40.4805C4.21484 40.4805 2.51953 38.7852 2.51953 36.7012C2.51953 34.6172 4.21484 32.9219 6.29883 32.9219C8.38282 32.9219 10.1621 34.6172 10.1621 36.7012C10.1621 38.7852 8.38282 40.4805 6.29883 40.4805Z" fill="#F2F9FF"/>
<path d="M12.6816 15.2852H5.03906L2.51953 17.8047V25.3633L5.03906 26.623H12.6816L16.4609 25.3633V18.5605L15.2012 17.8047L12.6816 15.2852Z" fill="#DC780B"/>
<path d="M2.51953 12.7656V17.8047H15.2012L16.4609 17.1525L15.2012 16.5449V12.7656H2.51953Z" fill="#FABE2C"/>
<path d="M20.2402 37.9609H0V36.7012C0 31.8309 4.03209 27.8828 8.90234 27.8828L11.002 26.623H22.7598V35.8613L20.2402 37.9609Z" fill="#FF6A4D"/>
<path d="M0 25.3633H17.7207V27.8828H0V25.3633Z" fill="#32393F"/>
<path d="M26.5391 31.7376V36.4743L25.2793 37.9609H20.2402V27.8828H17.7207C16.335 27.8828 15.2012 26.749 15.2012 25.3633V19.0645H22.7598V22.8438C24.1455 22.8438 25.2793 23.9775 25.2793 25.3633V30.4023L26.5391 31.7376Z" fill="#575F64"/>
<path d="M26.5391 31.7376V36.4743L25.2793 37.9609H20.2402V27.8828H18.9805V19.0645H22.7598V22.8438C24.1455 22.8438 25.2793 23.9775 25.2793 25.3633V30.4023L26.5391 31.7376Z" fill="#474F54"/>
<path d="M22.7598 17.8047V16.5449C22.7598 14.4609 21.0645 12.7656 18.9805 12.7656C16.8965 12.7656 15.2012 14.4609 15.2012 16.5449V19.0645C15.2012 21.1517 16.8932 22.8438 18.9805 22.8438H29.1426C31.2298 22.8438 32.9219 21.1517 32.9219 19.0645V17.8047H22.7598Z" fill="#FF6A4D"/>
<path d="M32.9219 19.0645V17.8047H22.7598V16.5449C22.7598 14.4609 21.0645 12.7656 18.9805 12.7656V22.8438H29.1426C31.2298 22.8438 32.9219 21.1517 32.9219 19.0645Z" fill="#E64D2E"/>
<path d="M20.2402 6.38281H18.9805H17.7207L15.2012 7.64258V8.90234C15.2012 10.9863 16.8965 12.7656 18.9805 12.7656C21.0645 12.7656 22.7598 10.9863 22.7598 8.90234V7.64258L20.2402 6.38281Z" fill="#FFE1BA"/>
<path d="M22.7598 8.90234V7.64258L20.2402 6.38281H18.9805V12.7656C21.0645 12.7656 22.7598 10.9863 22.7598 8.90234Z" fill="#FFBFAB"/>
<path d="M18.9805 5.12305H15.2012V7.64258H18.9805H25.2793V5.12305H18.9805Z" fill="#474F54"/>
<path d="M18.9805 5.12305H25.2793V7.64258H18.9805V5.12305Z" fill="#32393F"/>
<path d="M36.3936 25.645C36.2546 24.6644 35.979 22.733 35.4291 18.886L30.4023 16.5449V26.623C30.4023 28.6104 28.6903 30.4023 26.5391 30.4023H25.2793V37.9609H27.7988H40.4805L43 36.7012V34.1816C43 30.1514 40.2197 26.6378 36.3936 25.645Z" fill="#E64D2E"/>
<path d="M37.9609 20.3242H34.1816C32.0977 20.3242 30.4023 18.6289 30.4023 16.5449C30.4023 14.4609 32.0977 12.7656 34.1816 12.7656H37.9609V20.3242Z" fill="#FF6A4D"/>
<path d="M37.0798 30.4407L36.7134 31.8405L34.5843 30.7947C32.1547 31.669 30.4023 33.9742 30.4023 36.7012C30.4023 40.1742 33.2282 43 36.7012 43C40.1742 43 43 40.1742 43 36.7012C43 33.3579 40.3736 30.6409 37.0798 30.4407Z" fill="#32393F"/>
<path d="M36.7012 32.9219C34.6172 32.9219 32.9219 34.6172 32.9219 36.7012C32.9219 38.7852 34.6172 40.4805 36.7012 40.4805C38.7852 40.4805 40.4805 38.7852 40.4805 36.7012C40.4805 34.6172 38.7852 32.9219 36.7012 32.9219Z" fill="#DFE7F4"/>
<path d="M37.9487 36.5228L37.0798 30.4406C36.9519 30.4329 36.8308 30.4023 36.7012 30.4023C35.9552 30.4023 35.249 30.5555 34.5844 30.7946L35.4537 36.8796L37.9487 36.5228Z" fill="#C7CFE1"/>
</svg>

<svg xmlns="http://www.w3.org/2000/svg" width="43" height="43" fill="none" xmlns:v="https://vecta.io/nano"><path d="M18.981 0c-2.084 0-3.779 1.695-3.779 3.779v1.344l2.52 1.26h1.26 1.26l2.52-1.26V3.779C22.76 1.695 21.065 0 18.981 0z" fill="#ff6a4d"/><path d="M22.76 5.123V3.779C22.76 1.695 21.065 0 18.981 0v6.383h1.26l2.52-1.26z" fill="#e64d2e"/><path d="M0 37.961C.584 40.836 3.252 43 6.299 43s5.799-2.164 6.383-5.039l-2.737-1.26H1.749L0 37.961z" fill="#474f54"/><path d="M6.299 40.481c-2.084 0-3.779-1.695-3.779-3.779s1.695-3.779 3.779-3.779 3.863 1.695 3.863 3.779-1.779 3.779-3.863 3.779z" fill="#f2f9ff"/><path d="M12.682 15.285H5.039l-2.52 2.52v7.559l2.52 1.26h7.643l3.779-1.26v-6.803l-1.26-.756-2.52-2.52z" fill="#dc780b"/><path d="M2.52 12.766v5.039h12.682l1.26-.652-1.26-.608v-3.779H2.52z" fill="#fabe2c"/><path d="M20.24 37.961H0v-1.26c0-4.87 4.032-8.818 8.902-8.818l2.1-1.26H22.76v9.238l-2.52 2.1z" fill="#ff6a4d"/><path d="M0 25.363h17.721v2.52H0v-2.52z" fill="#32393f"/><path d="M26.539 31.738v4.737l-1.26 1.487H20.24V27.883h-2.52a2.53 2.53 0 0 1-2.52-2.52v-6.299h7.559v3.779a2.53 2.53 0 0 1 2.52 2.519v5.039l1.26 1.335z" fill="#575f64"/><path d="M26.539 31.738v4.737l-1.26 1.487H20.24V27.883h-1.26v-8.818h3.779v3.779a2.53 2.53 0 0 1 2.52 2.519v5.039l1.26 1.335z" fill="#474f54"/><path d="M22.76 17.805v-1.26c0-2.084-1.695-3.779-3.779-3.779s-3.779 1.695-3.779 3.779v2.52a3.78 3.78 0 0 0 3.779 3.779h10.162a3.78 3.78 0 0 0 3.779-3.779v-1.26H22.76z" fill="#ff6a4d"/><path d="M32.922 19.065v-1.26H22.76v-1.26c0-2.084-1.695-3.779-3.779-3.779v10.078h10.162a3.78 3.78 0 0 0 3.779-3.779z" fill="#e64d2e"/><path d="M20.24 6.383h-1.26-1.26l-2.52 1.26v1.26c0 2.084 1.695 3.863 3.779 3.863s3.779-1.779 3.779-3.863v-1.26l-2.52-1.26z" fill="#ffe1ba"/><path d="M22.76 8.902v-1.26l-2.52-1.26h-1.26v6.383c2.084 0 3.779-1.779 3.779-3.863z" fill="#ffbfab"/><path d="M18.981 5.123h-3.779v2.52h3.779 6.299v-2.52h-6.299z" fill="#474f54"/><path d="M18.981 5.123h6.299v2.52h-6.299v-2.52z" fill="#32393f"/><path d="M36.394 25.645l-.965-6.759-5.027-2.341v10.078c0 1.987-1.712 3.779-3.863 3.779h-1.26v7.559h2.52 12.682l2.52-1.26v-2.52a8.87 8.87 0 0 0-6.606-8.537z" fill="#e64d2e"/><path d="M37.961 20.324h-3.779c-2.084 0-3.779-1.695-3.779-3.779s1.695-3.779 3.779-3.779h3.779v7.559z" fill="#ff6a4d"/><path d="M37.08 30.441l-.366 1.4-2.129-1.046c-2.43.874-4.182 3.18-4.182 5.907A6.31 6.31 0 0 0 36.701 43 6.31 6.31 0 0 0 43 36.701c0-3.343-2.626-6.06-5.92-6.26z" fill="#32393f"/><path d="M36.701 32.922c-2.084 0-3.779 1.695-3.779 3.779s1.695 3.779 3.779 3.779 3.779-1.695 3.779-3.779-1.695-3.779-3.779-3.779z" fill="#dfe7f4"/><path d="M37.949 36.523l-.869-6.082c-.128-.008-.249-.038-.379-.038-.746 0-1.452.153-2.117.392l.869 6.085 2.495-.357z" fill="#c7cfe1"/></svg>
